public/icons/contact-phone.svg

<svg width="33" height="32" viewBox="0 0 33 32" fill="none" xmlns="http://www.w3.org/2000/svg">
<g clip-path="url(#clip0_573_2502)">
<path d="M23.5292 32C17.9194 32 11.9289 29.9387 7.245 25.2549C2.56894 20.5788 0.5 14.5923 0.5 8.97081C0.5 4.0165 4.50825 0 9.47081 0C9.85419 0 10.1989 0.233375 10.3413 0.589312L14.3579 10.631C14.5503 11.1117 14.3164 11.6573 13.8357 11.8496L9.42344 13.6145C9.73556 18.6906 13.8102 22.765 18.8855 23.0767L20.6504 18.6644C20.8423 18.1844 21.3877 17.9497 21.8691 18.1421L31.9106 22.1588C32.2666 22.3011 32.5 22.6458 32.5 23.0292C32.5 27.9835 28.4918 32 23.5292 32ZM8.84688 1.90188C5.25638 2.21256 2.375 5.22344 2.375 8.97081C2.375 14.6213 4.57538 19.9336 8.57088 23.9291C12.5663 27.9246 17.8786 30.125 23.5292 30.125C27.2754 30.125 30.2873 27.2453 30.5982 23.6531L22.0431 20.2311L20.3829 24.3815C20.2406 24.7374 19.8959 24.9708 19.5125 24.9708C12.9044 24.9708 7.52919 19.5956 7.52919 12.9885C7.52919 12.6052 7.76256 12.2594 8.1185 12.1171L12.2689 10.4569L8.84688 1.90188Z" fill="white"/>
</g>
<defs>
<clipPath id="clip0_573_2502">
<rect width="32" height="32" fill="white" transform="translate(0.5)"/>
</clipPath>
</defs>
</svg>

<svg xmlns="http://www.w3.org/2000/svg" fill="none" viewBox="0 0 33 32"><g clip-path="url(#a)"><path fill="#fff" d="M23.53 32c-5.61 0-11.601-2.061-16.285-6.745C2.569 20.579.5 14.592.5 8.97A8.966 8.966 0 0 1 9.47 0c.384 0 .729.233.871.59l4.017 10.041a.937.937 0 0 1-.522 1.219l-4.413 1.765c.313 5.076 4.387 9.15 9.463 9.462l1.764-4.413a.94.94 0 0 1 1.22-.522l10.04 4.017c.357.142.59.487.59.87A8.966 8.966 0 0 1 23.53 32M8.846 1.902c-3.59.31-6.472 3.321-6.472 7.069 0 5.65 2.2 10.963 6.196 14.958a21.02 21.02 0 0 0 14.958 6.196c3.746 0 6.758-2.88 7.07-6.472l-8.556-3.422-1.66 4.15a.94.94 0 0 1-.87.59c-6.609 0-11.984-5.375-11.984-11.982a.94.94 0 0 1 .59-.872l4.15-1.66z"/></g><defs><clipPath id="a"><path fill="#fff" d="M.5 0h32v32H.5z"/></clipPath></defs></svg>
